X:54
T:Roscommon Jig
T:The Hag's Purse
S:Kilkenny Tavern sessions, London
B:M Mulvihill, 1986, First Collection of Traditional
B:Irish Music, page 73, as 'Roscommon Jig' attributed
B:to Anne Sheehy McAuliffe.
N:Also known as 'Bobby Casey's' and 'Little Black Pig'.
N:The key is Dmix.
Z:ATB
R:jig
M:6/8
L:1/8
K:D
FG|A2D FED|A2B =cAF|G2E EDE|=c2d =cAG|
A2D FED|A2B =cAF|GEE =cEE|[1 DED D:|][2 DED DFA|]
d2e fed|e2d =cAF|G2E EDE|=c2d =cAG|
d2e fed|e2d =cAF|GEE =cEE|[1 DED DFA:|][2 DED D|]
